!!!OTL: Koenig und Marquise Nun hoeret zu und schweiget still,
!!!ARE: Europa, Mitteleuropa, Deutschland / France, Lothringen, Kr. Saargemuend,
!!    Grossrederchingen
!!!YOR: 2, S. 30
!!    1880 aufgezeichnet
!!!SCT: Q0013C
!!!YEM: Copyright 1995, estate of Helmut Schaffrath.
**kern
*ICvox
*Ivox
!! Mixed meters:  3/4; 2/4
*M2/4
*k[f#]
*G:
{8b
8b
8a
=1
4.g
8g
8a
8a
=2
4.b}
{8b
8b
8a
=3
8.g
16g
8g
8g
8a
8a
=4
4b}
{8b
8b
8b
8b
=5
4.a
16b
16cc
=6
4.dd
8cc}
=7
{4b
8b
8b
=8
*M3/4
8a
8g
8a
8b
8b
16a
16g
=9
*M2/4
4a}
{8a
16dd
16cc
=10
*M3/4
16b
16g
8g
8b
8cc
8b
8a
=11
4a
8g}
==
!!!AGN: Ballade, Krieg, Gefangenschaft, Ehe, Heimkehr
!! Melodievariante zu Q0035: anderes Lied "Graf Backenweil" , deshalb
!!    der Balladengruppe Q0013 zugeordnet.
!!    Kleinere Melodievarianten aus anderer Quelle abgedruckt.
!!!ONB: ESAC (Essen Associative Code) Database: BALLADE
!!!AMT: irregular
!!!AIN: vox
!!!EED: Helmut Schaffrath
!!!EEV: 1.0
*-
